lib/images/logo_reportseo.svg

<svg width="204" height="25" viewBox="0 0 204 25" fill="none" xmlns="http://www.w3.org/2000/svg">
<path d="M174.41 16.4302C175.279 16.9555 176.274 17.2354 177.29 17.2402C178.93 17.2402 179.9 16.3802 179.9 15.1202C179.9 13.8602 179.23 13.2802 177.54 12.6502C175.54 11.9302 174.25 10.8602 174.25 9.12022C174.25 7.18022 175.86 5.74022 178.25 5.74022C179.202 5.70889 180.147 5.91509 181 6.34022L180.6 7.66022C179.88 7.26584 179.071 7.0627 178.25 7.07022C176.53 7.07022 175.89 8.07022 175.89 8.93022C175.89 10.0902 176.65 10.6602 178.37 11.3202C180.48 12.1502 181.54 13.1702 181.54 14.9902C181.54 16.8102 180.13 18.5802 177.18 18.5802C176.068 18.5916 174.971 18.3124 174 17.7702L174.41 16.4302ZM190.18 12.5502H185.35V17.0502H190.75V18.3902H183.75V5.94022H190.49V7.28022H185.37V11.2202H190.2L190.18 12.5502ZM203.48 12.0402C203.48 16.3102 200.87 18.5902 197.7 18.5902C194.53 18.5902 192.1 16.0402 192.1 12.2702C192.1 8.33022 194.54 5.73022 197.87 5.73022C201.2 5.73022 203.48 8.34022 203.48 12.0002V12.0402ZM193.8 12.2402C193.8 14.9002 195.25 17.2402 197.8 17.2402C200.35 17.2402 201.8 14.9002 201.8 12.0702C201.8 9.59022 200.51 7.00022 197.8 7.00022C195.09 7.00022 193.8 9.51022 193.8 12.2402Z" fill="#233241"/>
<path d="M21.79 12.4102C18.5778 16.8314 14.6426 20.6787 10.15 23.7902C9.24998 24.4002 8.72999 23.5602 9.26999 22.8802C12.6707 18.6258 16.5798 14.804 20.91 11.5002C21.66 11.0002 22.26 11.7402 21.79 12.4102ZM17.59 8.06022C18.15 7.28022 17.64 6.49022 16.71 7.15022C16.15 7.54022 7.34998 15.3702 5.70998 17.0702C4.10998 15.6902 2.41998 14.2502 2.01998 13.9302C1.89117 13.8206 1.72419 13.7664 1.55554 13.7795C1.38689 13.7926 1.2303 13.872 1.11998 14.0002C1.02579 14.1161 0.974365 14.2609 0.974365 14.4102C0.974365 14.5596 1.02579 14.7043 1.11998 14.8202C2.30342 16.4808 3.59982 18.0578 4.99998 19.5402C5.16752 19.7646 5.41634 19.9143 5.69303 19.9573C5.96973 20.0003 6.25226 19.9332 6.47998 19.7702L6.61998 19.6502C10.724 16.2363 14.4066 12.3455 17.59 8.06022ZM5.84998 11.0602C8.54879 9.05899 11.0805 6.84169 13.42 4.43022C13.6239 4.22587 13.7385 3.94894 13.7385 3.66022C13.7385 3.3715 13.6239 3.09458 13.42 2.89022L13.36 2.84022C13.09 2.65022 10.47 0.350223 10.18 0.140224C9.57998 -0.279776 8.86999 0.310223 9.26999 1.03022C9.66998 1.75022 10.39 2.89022 10.83 3.58022C10.46 3.91022 5.51998 9.50022 4.99998 10.1902C4.47998 10.8802 4.99998 11.7102 5.87998 11.1002L5.84998 11.0602Z" fill="#FF6200"/>
<path d="M28.28 5.55017H31.15V11.3102L36.42 5.55017H39.88L34.58 11.1402L40.12 18.7202H36.68L32.68 13.1202L31.14 14.7002V18.7002H28.28V5.55017ZM46.87 5.46017H49.51L55.08 18.7202H52.08L50.9 15.7702H45.4L44.21 18.7202H41.29L46.87 5.46017ZM49.87 13.2102L48.15 8.94017L46.42 13.2102H49.87ZM56.6 12.2102C56.5881 11.3277 56.7502 10.4515 57.077 9.6316C57.4037 8.81173 57.8888 8.06426 58.5045 7.43188C59.1201 6.79949 59.8543 6.29458 60.6652 5.94598C61.476 5.59738 62.3475 5.41191 63.23 5.40017H63.42C64.3505 5.35062 65.2817 5.48497 66.1602 5.79554C67.0387 6.10612 67.8474 6.58682 68.54 7.21017L66.74 9.41017C65.8409 8.51042 64.622 8.00344 63.35 8.00017C62.3119 8.05202 61.3362 8.51204 60.6357 9.27999C59.9352 10.0479 59.5665 11.0616 59.61 12.1002C59.5442 13.1381 59.8925 14.1597 60.5785 14.9414C61.2645 15.723 62.2324 16.2008 63.27 16.2702H63.55C64.5109 16.2987 65.4561 16.0221 66.25 15.4802V13.6302H63.37V11.1302H69V16.8502C67.467 18.2072 65.4874 18.9513 63.44 18.9402C62.5805 18.9805 61.7214 18.8511 60.9118 18.5593C60.1023 18.2674 59.3582 17.819 58.7221 17.2395C58.086 16.66 57.5702 15.9608 57.2044 15.182C56.8386 14.4031 56.6298 13.5598 56.59 12.7002C56.58 12.5236 56.58 12.3467 56.59 12.1702L56.6 12.2102ZM77.15 5.46017H79.79L85.37 18.7202H82.37L81.18 15.7702H75.68L74.5 18.7202H71.58L77.15 5.46017ZM80.15 13.2102L78.43 8.94017L76.71 13.2102H80.15ZM88.3 5.55017H94.24C94.931 5.50664 95.6236 5.60287 96.2765 5.83311C96.9294 6.06335 97.5292 6.42286 98.04 6.89017C98.4157 7.29097 98.7074 7.76285 98.8981 8.27805C99.0887 8.79325 99.1744 9.34137 99.15 9.89017C99.2012 10.7852 98.9568 11.6723 98.4545 12.4149C97.9522 13.1575 97.2198 13.7145 96.37 14.0002L99.55 18.7002H96.21L93.42 14.5002H91.17V18.7202H88.31L88.3 5.55017ZM94.07 12.0002C95.46 12.0002 96.26 11.2502 96.26 10.1402C96.26 8.90017 95.41 8.26017 94.01 8.26017H91.17V12.0002H94.07ZM102.81 5.60017H105.67V18.7202H102.81V5.60017Z" fill="#233241"/>
<path d="M112 6.11025C113.023 5.92315 114.06 5.83275 115.1 5.84025C116.383 5.7072 117.669 6.06443 118.7 6.84025C119.026 7.1415 119.283 7.50872 119.456 7.9174C119.628 8.32608 119.711 8.76683 119.7 9.21025C119.707 9.92247 119.481 10.6175 119.057 11.1897C118.633 11.7619 118.033 12.1799 117.35 12.3803C117.861 12.614 118.3 12.9803 118.622 13.4409C118.944 13.9016 119.136 14.44 119.18 15.0002C119.412 16.1674 119.747 17.3118 120.18 18.4202H118.51C118.14 17.4493 117.865 16.4445 117.69 15.4202C117.32 13.7102 116.69 13.0503 115.19 13.0003H113.67V18.4002H112V6.11025ZM113.61 11.7803H115.25C116.97 11.7803 118.07 10.8403 118.07 9.41025C118.07 7.79025 116.9 7.09025 115.2 7.09025C114.666 7.07614 114.133 7.12311 113.61 7.23025V11.7803ZM122.88 14.2102C122.841 14.6292 122.896 15.0515 123.039 15.4471C123.182 15.8427 123.411 16.2018 123.709 16.4988C124.007 16.7958 124.367 17.0234 124.763 17.1654C125.159 17.3074 125.581 17.3603 126 17.3202C126.847 17.3429 127.688 17.1862 128.47 16.8603L128.76 18.0103C127.812 18.4126 126.789 18.6069 125.76 18.5802C125.164 18.6153 124.567 18.5217 124.009 18.3059C123.452 18.0901 122.948 17.7571 122.531 17.3294C122.113 16.9018 121.793 16.3894 121.591 15.8271C121.389 15.2648 121.31 14.6657 121.36 14.0702C121.36 11.3702 122.95 9.25025 125.56 9.25025C128.48 9.25025 129.24 11.8103 129.24 13.4503C129.244 13.7045 129.228 13.9587 129.19 14.2102H122.88ZM127.64 13.0503C127.64 12.0503 127.22 10.4203 125.4 10.4203C124.729 10.4653 124.1 10.7607 123.637 11.2478C123.174 11.7349 122.911 12.3782 122.9 13.0503H127.64ZM131.23 12.3602C131.23 11.2203 131.23 10.3003 131.15 9.45025H132.6L132.69 10.9802C133.01 10.4302 133.475 9.97828 134.034 9.67335C134.593 9.36842 135.224 9.22211 135.86 9.25025C138.03 9.25025 139.66 11.0703 139.66 13.7903C139.66 17.0103 137.66 18.5903 135.59 18.5903C135.048 18.6153 134.51 18.4983 134.027 18.251C133.545 18.0037 133.136 17.6346 132.84 17.1803V22.0502H131.23V12.3602ZM132.84 14.7502C132.837 14.9723 132.86 15.1938 132.91 15.4102C133.042 15.9549 133.354 16.4394 133.794 16.7858C134.235 17.1322 134.779 17.3204 135.34 17.3202C137.06 17.3202 138.06 15.9102 138.06 13.8602C138.06 12.0802 137.12 10.5403 135.4 10.5403C134.827 10.5557 134.275 10.7602 133.83 11.1219C133.385 11.4836 133.072 11.9823 132.94 12.5403C132.882 12.7557 132.848 12.9772 132.84 13.2003V14.7502ZM149.84 13.8403C149.894 14.4521 149.818 15.0683 149.617 15.6487C149.416 16.2292 149.096 16.7608 148.676 17.209C148.256 17.6572 147.746 18.0119 147.18 18.2499C146.614 18.4878 146.004 18.6038 145.39 18.5903C144.798 18.5978 144.211 18.4816 143.666 18.2489C143.121 18.0163 142.631 17.6724 142.227 17.2392C141.824 16.8061 141.515 16.2934 141.32 15.7339C141.126 15.1744 141.051 14.5805 141.1 13.9902C141.048 13.3801 141.125 12.7658 141.326 12.1873C141.526 11.6088 141.846 11.0788 142.265 10.6319C142.684 10.185 143.191 9.83107 143.756 9.59305C144.32 9.35502 144.928 9.23823 145.54 9.25025C148.14 9.25025 149.87 11.1102 149.87 13.8403H149.84ZM142.75 13.9402C142.75 15.9402 143.88 17.3802 145.46 17.3802C147.04 17.3802 148.19 15.9202 148.19 13.8903C148.19 12.3802 147.42 10.4703 145.49 10.4703C143.56 10.4703 142.78 12.2502 142.78 13.9402H142.75ZM151.89 12.2403C151.89 11.1803 151.89 10.2403 151.82 9.45025H153.24L153.3 11.2103H153.36C153.513 10.6577 153.835 10.1671 154.282 9.80814C154.729 9.44917 155.278 9.23998 155.85 9.21025C156.002 9.20537 156.153 9.2222 156.3 9.26025V10.7803C156.117 10.7634 155.933 10.7634 155.75 10.7803C155.196 10.8025 154.669 11.026 154.267 11.4088C153.866 11.7917 153.618 12.3077 153.57 12.8602C153.528 13.1114 153.508 13.3657 153.51 13.6203V18.3902H151.89V12.2403ZM160.33 6.88025V9.45025H162.67V10.6803H160.33V15.5002C160.33 16.6102 160.65 17.2402 161.56 17.2402C161.877 17.2466 162.193 17.2095 162.5 17.1302L162.58 18.3603C162.113 18.5165 161.622 18.5909 161.13 18.5802C160.805 18.5984 160.48 18.5472 160.177 18.4299C159.873 18.3127 159.598 18.1321 159.37 17.9002C158.884 17.2221 158.66 16.3908 158.74 15.5603V10.6803H157.36V9.45025H158.74V7.30025L160.33 6.88025Z" fill="#233241"/>
<path fill-rule="evenodd" clip-rule="evenodd" d="M169 12.0002V9.00024H168V12.0002H165V13.0002H168V16.0002H169V13.0002H172V12.0002H169Z" fill="#233241"/>
</svg>

<svg width="204" height="25" fill="none" xmlns="http://www.w3.org/2000/svg"><path d="M174.41 16.43a5.618 5.618 0 002.88.81c1.64 0 2.61-.86 2.61-2.12 0-1.26-.67-1.84-2.36-2.47-2-.72-3.29-1.79-3.29-3.53 0-1.94 1.61-3.38 4-3.38a5.742 5.742 0 012.75.6l-.4 1.32a4.8 4.8 0 00-2.35-.59c-1.72 0-2.36 1-2.36 1.86 0 1.16.76 1.73 2.48 2.39 2.11.83 3.17 1.85 3.17 3.67 0 1.82-1.41 3.59-4.36 3.59a6.39 6.39 0 01-3.18-.81l.41-1.34zm15.77-3.88h-4.83v4.5h5.4v1.34h-7V5.94h6.74v1.34h-5.12v3.94h4.83l-.02 1.33zm13.3-.51c0 4.27-2.61 6.55-5.78 6.55-3.17 0-5.6-2.55-5.6-6.32 0-3.94 2.44-6.54 5.77-6.54 3.33 0 5.61 2.61 5.61 6.27v.04zm-9.68.2c0 2.66 1.45 5 4 5s4-2.34 4-5.17c0-2.48-1.29-5.07-4-5.07s-4 2.51-4 5.24z" fill="#233241"/><path d="M21.79 12.41a48.57 48.57 0 01-11.64 11.38c-.9.61-1.42-.23-.88-.91A66.688 66.688 0 0120.91 11.5c.75-.5 1.35.24.88.91zm-4.2-4.35c.56-.78.05-1.57-.88-.91-.56.39-9.36 8.22-11 9.92-1.6-1.38-3.29-2.82-3.69-3.14a.64.64 0 00-.9.07.65.65 0 000 .82A44.405 44.405 0 005 19.54a1.07 1.07 0 001.48.23l.14-.12A67.206 67.206 0 0017.59 8.06zm-11.74 3a61.995 61.995 0 007.57-6.63 1.09 1.09 0 000-1.54l-.06-.05c-.27-.19-2.89-2.49-3.18-2.7-.6-.42-1.31.17-.91.89s1.12 1.86 1.56 2.55c-.37.33-5.31 5.92-5.83 6.61-.52.69 0 1.52.88.91l-.03-.04z" fill="#FF6200"/><path d="M28.28 5.55h2.87v5.76l5.27-5.76h3.46l-5.3 5.59 5.54 7.58h-3.44l-4-5.6-1.54 1.58v4h-2.86V5.55zm18.59-.09h2.64l5.57 13.26h-3l-1.18-2.95h-5.5l-1.19 2.95h-2.92l5.58-13.26zm3 7.75l-1.72-4.27-1.73 4.27h3.45zm6.73-1a6.72 6.72 0 016.63-6.81h.19a7.09 7.09 0 015.12 1.81l-1.8 2.2A4.81 4.81 0 0063.35 8a3.94 3.94 0 00-3.74 4.1 3.93 3.93 0 003.66 4.17h.28a4.55 4.55 0 002.7-.79v-1.85h-2.88v-2.5H69v5.72a8.32 8.32 0 01-5.56 2.09 6.551 6.551 0 01-6.85-6.24 4.685 4.685 0 010-.53l.01.04zm20.55-6.75h2.64l5.58 13.26h-3l-1.19-2.95h-5.5l-1.18 2.95h-2.92l5.57-13.26zm3 7.75l-1.72-4.27-1.72 4.27h3.44zm8.15-7.66h5.94a5.15 5.15 0 013.8 1.34 4.121 4.121 0 011.11 3A4.09 4.09 0 0196.37 14l3.18 4.7h-3.34l-2.79-4.2h-2.25v4.22h-2.86L88.3 5.55zM94.07 12c1.39 0 2.19-.75 2.19-1.86 0-1.24-.85-1.88-2.25-1.88h-2.84V12h2.9zm8.74-6.4h2.86v13.12h-2.86V5.6zm9.19.51a16.56 16.56 0 013.1-.27 5.11 5.11 0 013.6 1 3.123 3.123 0 011 2.37 3.271 3.271 0 01-2.35 3.17 3.151 3.151 0 011.83 2.62 20.248 20.248 0 001 3.42h-1.67c-.37-.97-.645-1.976-.82-3-.37-1.71-1-2.37-2.5-2.42h-1.52v5.4H112V6.11zm1.61 5.67h1.64c1.72 0 2.82-.94 2.82-2.37 0-1.62-1.17-2.32-2.87-2.32a6.998 6.998 0 00-1.59.14v4.55zm9.27 2.43a2.86 2.86 0 003.12 3.11 6 6 0 002.47-.46l.29 1.15a7.201 7.201 0 01-3 .57 4.174 4.174 0 01-4.169-2.753 4.166 4.166 0 01-.231-1.757c0-2.7 1.59-4.82 4.2-4.82 2.92 0 3.68 2.56 3.68 4.2.004.255-.012.509-.05.76h-6.31zm4.76-1.16c0-1-.42-2.63-2.24-2.63a2.68 2.68 0 00-2.5 2.63h4.74zm3.59-.69c0-1.14 0-2.06-.08-2.91h1.45l.09 1.53a3.486 3.486 0 013.17-1.73c2.17 0 3.8 1.82 3.8 4.54 0 3.22-2 4.8-4.07 4.8a3.113 3.113 0 01-2.75-1.41v4.87h-1.61v-9.69zm1.61 2.39a2.502 2.502 0 002.5 2.57c1.72 0 2.72-1.41 2.72-3.46 0-1.78-.94-3.32-2.66-3.32a2.6 2.6 0 00-2.46 2 2.946 2.946 0 00-.1.66v1.55zm17-.91a4.373 4.373 0 01-4.45 4.75 4.252 4.252 0 01-4.29-4.6 4.364 4.364 0 011.165-3.358 4.367 4.367 0 013.275-1.382c2.6 0 4.33 1.86 4.33 4.59h-.03zm-7.09.1c0 2 1.13 3.44 2.71 3.44s2.73-1.46 2.73-3.49c0-1.51-.77-3.42-2.7-3.42-1.93 0-2.71 1.78-2.71 3.47h-.03zm9.14-1.7c0-1.06 0-2-.07-2.79h1.42l.06 1.76h.06a2.732 2.732 0 012.49-2 1.59 1.59 0 01.45.05v1.52a2.99 2.99 0 00-.55 0 2.283 2.283 0 00-2.18 2.08 4.4 4.4 0 00-.06.76v4.77h-1.62v-6.15zm8.44-5.36v2.57h2.34v1.23h-2.34v4.82c0 1.11.32 1.74 1.23 1.74.317.007.633-.03.94-.11l.08 1.23a4.28 4.28 0 01-1.45.22 2.286 2.286 0 01-1.76-.68 3.45 3.45 0 01-.63-2.34v-4.88h-1.38V9.45h1.38V7.3l1.59-.42z" fill="#233241"/><path fill-rule="evenodd" clip-rule="evenodd" d="M169 12V9h-1v3h-3v1h3v3h1v-3h3v-1h-3z" fill="#233241"/></svg>
